images/hot.svg

<svg width="59" height="60" viewBox="0 0 59 60" fill="none" xmlns="http://www.w3.org/2000/svg">
<path d="M0 5.54214V41.1868C0 43.1822 1.08066 45.0273 2.83586 46.0114L26.5071 59.2825C28.2072 60.2392 30.2928 60.2392 31.9929 59.2825L55.6641 46.0114C57.4193 45.0273 58.5 43.1822 58.5 41.1868V5.54214C58.5 2.48064 56.0014 0 52.9178 0H5.58224C2.49859 0 0 2.48064 0 5.54214Z" fill="url(#paint0_linear_837_33209)"/>
<g filter="url(#filter0_d_837_33209)">
<path d="M28.7471 24.0629C30.3555 23.6857 31.1395 25.0935 31.4365 25.9447C32.1173 27.8997 31.9291 30.139 30.9414 31.9574C33.2954 31.4623 34.5469 31.3461 36.7559 31.3461C37.5089 31.3461 38.3672 31.4916 38.7842 32.1186C39.0686 32.5468 39.0566 33.1271 38.8398 33.5932C38.641 34.0206 38.2905 34.3606 37.8955 34.6225H37.8965C38.1424 34.7358 38.3557 34.8977 38.5088 35.1283C38.7928 35.5564 38.7816 36.1361 38.5645 36.602C38.3656 37.0296 38.0143 37.3703 37.6191 37.6322C37.8651 37.7456 38.0783 37.9074 38.2314 38.1381C38.5157 38.5663 38.5045 39.1467 38.2871 39.6127C38.0968 40.0203 37.769 40.3484 37.3965 40.6049C37.6383 40.7016 37.8496 40.8473 37.9961 41.0678C38.2367 41.4296 38.2174 41.9165 38.0439 42.3148C37.6369 43.2503 36.3263 44.0883 33.3926 44.0883H28.6191C27.5597 44.0883 26.4134 43.6957 25.4912 42.9525C25.0921 42.6303 24.8594 42.1454 24.8594 41.6322V33.5023C24.8594 33.0257 25.0627 32.5739 25.4121 32.2504C26.4901 31.252 27.245 29.6266 27.6514 28.2748C28.2282 26.3555 27.1321 24.4415 28.7471 24.0629ZM23.0508 32.268C23.566 32.268 23.9834 32.6854 23.9834 33.2006V42.2992C23.9833 42.8143 23.5659 43.2318 23.0508 43.2318H19.9326C19.4176 43.2317 19.0001 42.8143 19 42.2992V33.2006C19 32.6855 19.4175 32.2681 19.9326 32.268H23.0508Z" fill="url(#paint1_linear_837_33209)"/>
</g>
<g filter="url(#filter1_d_837_33209)">
<path d="M21.0636 10.2H23.3316V20H21.0636V10.2ZM16.6116 20H14.3436V10.2H16.6116V20ZM21.2316 15.982H16.4436V14.064H21.2316V15.982ZM30.4103 20.168C29.6356 20.168 28.9169 20.042 28.2543 19.79C27.6009 19.538 27.0316 19.1833 26.5463 18.726C26.0703 18.2687 25.6969 17.732 25.4263 17.116C25.1649 16.5 25.0343 15.828 25.0343 15.1C25.0343 14.372 25.1649 13.7 25.4263 13.084C25.6969 12.468 26.0749 11.9313 26.5603 11.474C27.0456 11.0167 27.6149 10.662 28.2683 10.41C28.9216 10.158 29.6309 10.032 30.3963 10.032C31.1709 10.032 31.8803 10.158 32.5243 10.41C33.1776 10.662 33.7423 11.0167 34.2183 11.474C34.7036 11.9313 35.0816 12.468 35.3523 13.084C35.6229 13.6907 35.7583 14.3627 35.7583 15.1C35.7583 15.828 35.6229 16.5047 35.3523 17.13C35.0816 17.746 34.7036 18.2827 34.2183 18.74C33.7423 19.188 33.1776 19.538 32.5243 19.79C31.8803 20.042 31.1756 20.168 30.4103 20.168ZM30.3963 18.236C30.8349 18.236 31.2363 18.1613 31.6003 18.012C31.9736 17.8627 32.3003 17.648 32.5803 17.368C32.8603 17.088 33.0749 16.7567 33.2243 16.374C33.3829 15.9913 33.4623 15.5667 33.4623 15.1C33.4623 14.6333 33.3829 14.2087 33.2243 13.826C33.0749 13.4433 32.8603 13.112 32.5803 12.832C32.3096 12.552 31.9876 12.3373 31.6143 12.188C31.2409 12.0387 30.8349 11.964 30.3963 11.964C29.9576 11.964 29.5516 12.0387 29.1783 12.188C28.8143 12.3373 28.4923 12.552 28.2123 12.832C27.9323 13.112 27.7129 13.4433 27.5543 13.826C27.4049 14.2087 27.3303 14.6333 27.3303 15.1C27.3303 15.5573 27.4049 15.982 27.5543 16.374C27.7129 16.7567 27.9276 17.088 28.1983 17.368C28.4783 17.648 28.8049 17.8627 29.1783 18.012C29.5516 18.1613 29.9576 18.236 30.3963 18.236ZM39.3561 20V12.048H36.2201V10.2H44.7601V12.048H41.6241V20H39.3561Z" fill="#0271E5"/>
</g>
<defs>
<filter id="filter0_d_837_33209" x="19" y="24" width="20.9112" height="20.9971" filterUnits="userSpaceOnUse" color-interpolation-filters="sRGB">
<feFlood flood-opacity="0" result="BackgroundImageFix"/>
<feColorMatrix in="SourceAlpha" type="matrix" values="0 0 0 0 0 0 0 0 0 0 0 0 0 0 0 0 0 0 127 0" result="hardAlpha"/>
<feOffset dx="0.911162" dy="0.911162"/>
<feComposite in2="hardAlpha" operator="out"/>
<feColorMatrix type="matrix" values="0 0 0 0 1 0 0 0 0 1 0 0 0 0 1 0 0 0 1 0"/>
<feBlend mode="normal" in2="BackgroundImageFix" result="effect1_dropShadow_837_33209"/>
<feBlend mode="normal" in="SourceGraphic" in2="effect1_dropShadow_837_33209" result="shape"/>
</filter>
<filter id="filter1_d_837_33209" x="14.3438" y="10.0312" width="31.3291" height="11.0479" filterUnits="userSpaceOnUse" color-interpolation-filters="sRGB">
<feFlood flood-opacity="0" result="BackgroundImageFix"/>
<feColorMatrix in="SourceAlpha" type="matrix" values="0 0 0 0 0 0 0 0 0 0 0 0 0 0 0 0 0 0 127 0" result="hardAlpha"/>
<feOffset dx="0.911162" dy="0.911162"/>
<feComposite in2="hardAlpha" operator="out"/>
<feColorMatrix type="matrix" values="0 0 0 0 1 0 0 0 0 1 0 0 0 0 1 0 0 0 1 0"/>
<feBlend mode="normal" in2="BackgroundImageFix" result="effect1_dropShadow_837_33209"/>
<feBlend mode="normal" in="SourceGraphic" in2="effect1_dropShadow_837_33209" result="shape"/>
</filter>
<linearGradient id="paint0_linear_837_33209" x1="0.171151" y1="0.0761718" x2="57.9037" y2="60.4921" gradientUnits="userSpaceOnUse">
<stop stop-color="#B5DEFF"/>
<stop offset="0.35" stop-color="#D8F3FF"/>
<stop offset="0.75" stop-color="#B2D8FF"/>
<stop offset="1" stop-color="#4FA2FF"/>
</linearGradient>
<linearGradient id="paint1_linear_837_33209" x1="29.0002" y1="24" x2="29.0002" y2="44.0883" gradientUnits="userSpaceOnUse">
<stop stop-color="#3E9CFF"/>
<stop offset="1" stop-color="#0271E5"/>
</linearGradient>
</defs>
</svg>

<?xml version="1.0" encoding="UTF-8"?>
<svg id="_圖層_1" data-name="圖層_1" xmlns="http://www.w3.org/2000/svg" xmlns:xlink="http://www.w3.org/1999/xlink" version="1.1" viewBox="0 0 58.5 60">
  <!-- Generator: Adobe Illustrator 30.6.0, SVG Export Plug-In . SVG Version: 2.1.4 Build 109)  -->
  <defs>
    <style>
      .st0 {
        fill: url(#_未命名漸層);
      }

      .st1 {
        fill: url(#_未命名漸層_2);
      }

      .st2 {
        fill: #0271e5;
      }
    </style>
    <linearGradient id="_未命名漸層" data-name="未命名漸層" x1="3.74" y1="65.33" x2="61.47" y2="4.92" gradientTransform="translate(0 62) scale(1 -1)" gradientUnits="userSpaceOnUse">
      <stop offset="0" stop-color="#b5deff"/>
      <stop offset=".35" stop-color="#d8f3ff"/>
      <stop offset=".75" stop-color="#b2d8ff"/>
      <stop offset="1" stop-color="#4fa2ff"/>
    </linearGradient>
    <linearGradient id="_未命名漸層_2" data-name="未命名漸層 2" x1="29" y1="38" x2="29" y2="17.91" gradientTransform="translate(0 62) scale(1 -1)" gradientUnits="userSpaceOnUse">
      <stop offset="0" stop-color="#3e9cff"/>
      <stop offset="1" stop-color="#0271e5"/>
    </linearGradient>
  </defs>
  <path class="st0" d="M0,5.54v35.64c0,2,1.08,3.84,2.84,4.82l23.67,13.27c1.7.96,3.79.96,5.49,0l23.67-13.27c1.76-.98,2.84-2.83,2.84-4.82V5.54c0-3.06-2.5-5.54-5.58-5.54H5.58C2.5,0,0,2.48,0,5.54Z"/>
  <path class="st1" d="M28.75,24.06c1.61-.38,2.39,1.03,2.69,1.88.68,1.95.49,4.19-.5,6.01,2.35-.5,3.61-.61,5.81-.61.75,0,1.61.15,2.03.77.28.43.27,1.01.06,1.47-.2.43-.55.77-.94,1.03h0c.25.11.46.28.61.51.28.43.27,1.01.06,1.47-.2.43-.55.77-.95,1.03.25.11.46.28.61.51.28.43.27,1.01.06,1.47-.19.41-.52.74-.89.99.24.1.45.24.6.46.24.36.22.85.05,1.25-.41.94-1.72,1.77-4.65,1.77h-4.77c-1.06,0-2.21-.39-3.13-1.14-.4-.32-.63-.81-.63-1.32v-8.13c0-.48.2-.93.55-1.25,1.08-1,1.83-2.62,2.24-3.98.58-1.92-.52-3.83,1.1-4.21ZM23.05,32.27c.52,0,.93.42.93.93v9.1c0,.52-.42.93-.93.93h-3.12c-.51,0-.93-.42-.93-.93v-9.1c0-.52.42-.93.93-.93h3.12Z"/>
  <path class="st2" d="M21.06,10.2h2.27v9.8h-2.27v-9.8ZM16.61,20h-2.27v-9.8h2.27v9.8ZM21.23,15.98h-4.79v-1.92h4.79v1.92ZM30.41,20.17c-.77,0-1.49-.13-2.16-.38-.65-.25-1.22-.61-1.71-1.06-.48-.46-.85-.99-1.12-1.61-.26-.62-.39-1.29-.39-2.02s.13-1.4.39-2.02c.27-.62.65-1.15,1.13-1.61.49-.46,1.05-.81,1.71-1.06.65-.25,1.36-.38,2.13-.38s1.48.13,2.13.38c.65.25,1.22.61,1.69,1.06.49.46.86.99,1.13,1.61.27.61.41,1.28.41,2.02s-.14,1.4-.41,2.03c-.27.62-.65,1.15-1.13,1.61-.48.45-1.04.8-1.69,1.05-.64.25-1.35.38-2.11.38ZM30.4,18.24c.44,0,.84-.07,1.2-.22.37-.15.7-.36.98-.64s.49-.61.64-.99c.16-.38.24-.81.24-1.27s-.08-.89-.24-1.27c-.15-.38-.36-.71-.64-.99-.27-.28-.59-.49-.97-.64-.37-.15-.78-.22-1.22-.22s-.84.07-1.22.22c-.36.15-.69.36-.97.64-.28.28-.5.61-.66.99-.15.38-.22.81-.22,1.27s.07.88.22,1.27c.16.38.37.71.64.99.28.28.61.49.98.64.37.15.78.22,1.22.22ZM39.36,20v-7.95h-3.14v-1.85h8.54v1.85h-3.14v7.95h-2.27Z"/>
</svg>
